src/cmd/32/insertbreak.svg

<svg viewBox="0 0 32 32" xmlns="http://www.w3.org/2000/svg"><path d="m4 15v1h6v-1zm9 0v1h6v-1zm9 0v1h6v-1z" fill="#762572"/><path d="m6 4v10h1 18 1v-10zm1 1h18v8h-18zm-1 12v1 10h9v-1h-8v-9h18v2h-7v5h4l4-4v-1-2-1h-1-18z" fill="#232629"/><path d="m17 26c-.552 0-1 .448-1 1s.448 1 1 1 1-.448 1-1-.448-1-1-1zm4 0c-.552 0-1 .448-1 1s.448 1 1 1 1-.448 1-1-.448-1-1-1zm4 0c-.552 0-1 .448-1 1s.448 1 1 1 1-.448 1-1-.448-1-1-1z" fill="#e95420"/></svg>

<?xml version="1.0" encoding="UTF-8" standalone="no"?>
<svg
   xmlns:dc="http://purl.org/dc/elements/1.1/"
   xmlns:cc="http://creativecommons.org/ns#"
   xmlns:rdf="http://www.w3.org/1999/02/22-rdf-syntax-ns#"
   xmlns:svg="http://www.w3.org/2000/svg"
   xmlns="http://www.w3.org/2000/svg"
   xmlns:sodipodi="http://sodipodi.sourceforge.net/DTD/sodipodi-0.dtd"
   xmlns:inkscape="http://www.inkscape.org/namespaces/inkscape"
   viewBox="0 0 32 32"
   version="1.1"
   id="svg8"
   sodipodi:docname="insertbreak.svg"
   inkscape:version="0.92.4 (5da689c313, 2019-01-14)"
   inkscape:export-filename="/home/jupiter007/Libreoffice yaru theme/build/cmd/32/insertbreak.png"
   inkscape:export-xdpi="96"
   inkscape:export-ydpi="96">
  <metadata
     id="metadata14">
    <rdf:RDF>
      <cc:Work
         rdf:about="">
        <dc:format>image/svg+xml</dc:format>
        <dc:type
           rdf:resource="http://purl.org/dc/dcmitype/StillImage" />
      </cc:Work>
    </rdf:RDF>
  </metadata>
  <defs
     id="defs12" />
  <sodipodi:namedview
     pagecolor="#ffffff"
     bordercolor="#666666"
     borderopacity="1"
     objecttolerance="10"
     gridtolerance="10"
     guidetolerance="10"
     inkscape:pageopacity="0"
     inkscape:pageshadow="2"
     inkscape:window-width="1920"
     inkscape:window-height="1011"
     id="namedview10"
     showgrid="true"
     inkscape:zoom="29.5"
     inkscape:cx="5.0609801"
     inkscape:cy="9.7592756"
     inkscape:window-x="0"
     inkscape:window-y="32"
     inkscape:window-maximized="1"
     inkscape:current-layer="svg8">
    <inkscape:grid
       type="xygrid"
       id="grid821" />
  </sodipodi:namedview>
  <path
     d="m4 15v1h6v-1zm9 0v1h6v-1zm9 0v1h6v-1z"
     fill="#762572"
     id="path2" />
  <path
     d="m 6,4 v 10 h 1 18 1 V 4 Z m 1,1 h 18 v 8 H 7 Z M 26,25 V 21 20 18 17 H 25 7 6 v 1 10 h 9 11 z M 15,27 H 7 v -9 h 18 v 2 5 2 z"
     id="path4"
     inkscape:connector-curvature="0"
     style="fill:#232629"
     sodipodi:nodetypes="ccccccccccccccccccccccccccccccccc" />
</svg>
